_site/images/homepage/logos/bitbucket.svg

<svg fill="none" height="83" viewBox="0 0 113 83" width="113" xmlns="http://www.w3.org/2000/svg" xmlns:xlink="http://www.w3.org/1999/xlink"><linearGradient id="a" gradientUnits="userSpaceOnUse" x1="68.8691" x2="51.2721" y1="28.3241" y2="53.8746"><stop offset=".18" stop-color="#0052cc"/><stop offset="1" stop-color="#2684ff"/></linearGradient><path clip-rule="evenodd" d="m30.9371 18.3219c.3118-.3687.7677-.578 1.2453-.5718l47.1797.0083c.4776-.0063.9334.203 1.2453.5718.3118.3687.4478.8592.3713 1.3398l-6.8624 42.9454c-.128.806-.8157 1.3948-1.6165 1.3843h-32.9216c-1.067-.009-1.9736-.7977-2.1501-1.8704l-6.8623-42.4675c-.0765-.4806.0595-.9711.3713-1.3399zm19.6319 30.1224h10.5078l2.5461-15.1529h-15.8991z" fill="#2684ff" fill-rule="evenodd"/><path d="m78.8952 33.517h-15.6992l-2.6346 15.041h-10.8731l-12.8387 14.902c.4069.3441.9258.5355 1.4637.5398h34.0747c.8287.0105 1.5403-.574 1.6728-1.374z" fill="url(#a)"/></svg>

<svg width="113" height="83" viewBox="0 0 113 83" fill="none" xmlns="http://www.w3.org/2000/svg">
<path fill-rule="evenodd" clip-rule="evenodd" d="M30.9371 18.3219C31.2489 17.9532 31.7048 17.7439 32.1824 17.7501L79.3621 17.7584C79.8397 17.7521 80.2955 17.9614 80.6074 18.3302C80.9192 18.6989 81.0552 19.1894 80.9787 19.67L74.1163 62.6154C73.9883 63.4214 73.3006 64.0102 72.4998 63.9997H39.5782C38.5112 63.9907 37.6046 63.202 37.4281 62.1293L30.5658 19.6618C30.4893 19.1812 30.6253 18.6907 30.9371 18.3219ZM50.569 48.4443H61.0768L63.6229 33.2914H47.7238L50.569 48.4443Z" fill="#2684FF"/>
<path d="M78.8952 33.517H63.196L60.5614 48.558H49.6883L36.8496 63.46C37.2565 63.8041 37.7754 63.9955 38.3133 63.9998H72.388C73.2167 64.0103 73.9283 63.4258 74.0608 62.6258L78.8952 33.517Z" fill="url(#paint0_linear)"/>
<defs>
<linearGradient id="paint0_linear" x1="68.8691" y1="28.3241" x2="51.2721" y2="53.8746" gradientUnits="userSpaceOnUse">
<stop offset="0.18" stop-color="#0052CC"/>
<stop offset="1" stop-color="#2684FF"/>
</linearGradient>
</defs>
</svg>
